lib/svg/smiley.svg

<svg xmlns="http://www.w3.org/2000/svg" width="16" height="16" viewBox="0 0 16 16"><path d="M8 0C3.58 0 0 3.58 0 8s3.58 8 8 8 8-3.58 8-8-3.58-8-8-8zm4.81 12.81a6.72 6.72 0 0 1-2.17 1.45c-.83.36-1.72.53-2.64.53-.92 0-1.81-.17-2.64-.53-.81-.34-1.55-.83-2.17-1.45a6.773 6.773 0 0 1-1.45-2.17A6.59 6.59 0 0 1 1.21 8c0-.92.17-1.81.53-2.64.34-.81.83-1.55 1.45-2.17.62-.62 1.36-1.11 2.17-1.45A6.59 6.59 0 0 1 8 1.21c.92 0 1.81.17 2.64.53.81.34 1.55.83 2.17 1.45.62.62 1.11 1.36 1.45 2.17.36.83.53 1.72.53 2.64 0 .92-.17 1.81-.53 2.64-.34.81-.83 1.55-1.45 2.17zM4 6.8v-.59c0-.66.53-1.19 1.2-1.19h.59c.66 0 1.19.53 1.19 1.19v.59c0 .67-.53 1.2-1.19 1.2H5.2C4.53 8 4 7.47 4 6.8zm5 0v-.59c0-.66.53-1.19 1.2-1.19h.59c.66 0 1.19.53 1.19 1.19v.59c0 .67-.53 1.2-1.19 1.2h-.59C9.53 8 9 7.47 9 6.8zm4 3.2c-.72 1.88-2.91 3-5 3s-4.28-1.13-5-3c-.14-.39.23-1 .66-1h8.59c.41 0 .89.61.75 1z"/></svg>

<?xml version="1.0" encoding="UTF-8" standalone="no"?>
<svg width="16px" height="16px" viewBox="0 0 16 16" version="1.1" xmlns="http://www.w3.org/2000/svg" xmlns:xlink="http://www.w3.org/1999/xlink">
    <!-- Generator: Sketch 3.8.3 (29802) - http://www.bohemiancoding.com/sketch -->
    <title>smiley</title>
    <desc>Created with Sketch.</desc>
    <defs></defs>
    <g id="Octicons" stroke="none" stroke-width="1" fill="none" fill-rule="evenodd">
        <g id="smiley" fill="#000000">
            <path d="M8,0 C3.58,0 0,3.58 0,8 C0,12.42 3.58,16 8,16 C12.42,16 16,12.42 16,8 C16,3.58 12.42,0 8,0 L8,0 Z M12.81,12.81 C12.18,13.44 11.45,13.92 10.64,14.26 C9.81,14.62 8.92,14.79 8,14.79 C7.08,14.79 6.19,14.62 5.36,14.26 C4.55,13.92 3.81,13.43 3.19,12.81 C2.57,12.19 2.08,11.45 1.74,10.64 C1.38,9.81 1.21,8.92 1.21,8 C1.21,7.08 1.38,6.19 1.74,5.36 C2.08,4.55 2.57,3.81 3.19,3.19 C3.81,2.57 4.55,2.08 5.36,1.74 C6.19,1.38 7.08,1.21 8,1.21 C8.92,1.21 9.81,1.38 10.64,1.74 C11.45,2.08 12.19,2.57 12.81,3.19 C13.43,3.81 13.92,4.55 14.26,5.36 C14.62,6.19 14.79,7.08 14.79,8 C14.79,8.92 14.62,9.81 14.26,10.64 C13.92,11.45 13.43,12.19 12.81,12.81 L12.81,12.81 Z M4,6.8 L4,6.21 C4,5.55 4.53,5.02 5.2,5.02 L5.79,5.02 C6.45,5.02 6.98,5.55 6.98,6.21 L6.98,6.8 C6.98,7.47 6.45,8 5.79,8 L5.2,8 C4.53,8 4,7.47 4,6.8 L4,6.8 Z M9,6.8 L9,6.21 C9,5.55 9.53,5.02 10.2,5.02 L10.79,5.02 C11.45,5.02 11.98,5.55 11.98,6.21 L11.98,6.8 C11.98,7.47 11.45,8 10.79,8 L10.2,8 C9.53,8 9,7.47 9,6.8 L9,6.8 Z M13,10 C12.28,11.88 10.09,13 8,13 C5.91,13 3.72,11.87 3,10 C2.86,9.61 3.23,9 3.66,9 L12.25,9 C12.66,9 13.14,9.61 13,10 L13,10 Z" id="Shape"></path>
        </g>
    </g>
</svg>
